fs/box_search_24_filled.svg

<svg viewBox="0 0 24 24" fill="none" xmlns="http://www.w3.org/2000/svg" height="1em" width="1em">
  <path d="M13.4089 2.51301C12.5053 2.14671 11.4947 2.14671 10.5911 2.51301L8.40058 3.40106L17.9928 7.13136L21.3671 5.82763C21.2312 5.7149 21.0769 5.62165 20.9075 5.55298L13.4089 2.51301ZM22 7.19118L12.7498 10.7651V12.4778C13.7323 11.5616 15.0507 11.001 16.5 11.001C19.5212 11.001 21.9734 13.4369 21.9998 16.4518L22 7.19118ZM11.2498 14.8574C11.0875 15.3764 11 15.9285 11 16.501C11 17.0735 11.0875 17.6256 11.2498 18.1446V21.6882C11.0261 21.6425 10.8056 21.5762 10.5911 21.4892L3.09252 18.4493C2.43211 18.1815 2 17.5401 2 16.8275V7.19134L11.2498 10.7651V14.8574ZM2.63273 5.82774L11.9998 9.44684L15.9168 7.93346L6.37434 4.22251L3.09252 5.55298C2.92308 5.62167 2.76867 5.71496 2.63273 5.82774ZM20.1681 19.1084C20.6919 18.3728 21 17.4728 21 16.501C21 14.0157 18.9853 12.001 16.5 12.001C14.0147 12.001 12 14.0157 12 16.501C12 18.9863 14.0147 21.001 16.5 21.001C17.4719 21.001 18.3718 20.6929 19.1074 20.169L21.7197 22.7813C22.0126 23.0742 22.4874 23.0742 22.7803 22.7813C23.0732 22.4884 23.0732 22.0135 22.7803 21.7206L20.1681 19.1084ZM19.5 16.501C19.5 18.1578 18.1569 19.501 16.5 19.501C14.8431 19.501 13.5 18.1578 13.5 16.501C13.5 14.8441 14.8431 13.501 16.5 13.501C18.1569 13.501 19.5 14.8441 19.5 16.501Z" fill="#212121"/>
</svg>

<svg viewBox="0 0 24 24" fill="none" xmlns="http://www.w3.org/2000/svg" height="1em" width="1em">
  <path d="M13.409 2.513a3.75 3.75 0 0 0-2.818 0l-2.19.888 9.592 3.73 3.374-1.303a1.747 1.747 0 0 0-.46-.275l-7.498-3.04ZM22 7.191l-9.25 3.574v1.713A5.5 5.5 0 0 1 22 16.452v-9.26Zm-10.75 7.666a5.498 5.498 0 0 0-.25 1.644c0 .572.088 1.125.25 1.644v3.543a3.748 3.748 0 0 1-.659-.199l-7.498-3.04A1.75 1.75 0 0 1 2 16.827V7.192l9.25 3.574v4.092Zm-8.617-9.03L12 9.448l3.917-1.514-9.543-3.71-3.281 1.33c-.17.069-.324.162-.46.275Zm17.535 13.281a4.5 4.5 0 1 0-1.06 1.06l2.612 2.613a.75.75 0 1 0 1.06-1.06l-2.612-2.613Zm-.668-2.607a3 3 0 1 1-6 0 3 3 0 0 1 6 0Z" fill="#212121"/>
</svg>
